Origami/64x64/apps/mps.svg

<svg width="64" height="64" version="1" xmlns="http://www.w3.org/2000/svg">
 <path d="M 6.8007812,61 C 5.2495812,61 4,59.750418 4,58.199218 v -2 C 4,57.750418 5.2495812,59 6.8007812,59 H 32 57.199218 C 58.750418,59 60,57.750418 60,56.199218 v 2 C 60,59.750418 58.750418,61 57.199218,61 H 32 Z" style="opacity:.2"/>
 <path d="m32 4h-25.2c-1.5512 0-2.8 1.2488-2.8 2.8v25.2h28z" style="fill:#f7c73c"/>
 <path d="m32 4h25.2c1.5512 0 2.8 1.2488 2.8 2.8v25.2h-28z" style="fill:#21d789"/>
 <path d="m32 60h-25.2c-1.5512 0-2.8-1.2488-2.8-2.8v-25.2h28z" style="fill:#21d789"/>
 <path d="m32 60h25.2c1.5512 0 2.8-1.2488 2.8-2.8v-25.2h-28z" style="fill:#2086e7"/>
 <path d="M 6.8007812 4 C 5.2495812 4 4 5.2495812 4 6.8007812 L 4 7.8007812 C 4 6.2495813 5.2495812 5 6.8007812 5 L 32 5 L 57.199219 5 C 58.750419 5 60 6.2495812 60 7.8007812 L 60 6.8007812 C 60 5.2495813 58.750419 4 57.199219 4 L 32 4 L 6.8007812 4 z" style="fill:#ffffff;opacity:.2"/>
 <rect x="12" y="12" width="40" height="40" style="fill:#3f3f3f"/>
 <path d="m15.014242 45.9999h16" style="fill:none;opacity:.2;stroke-linecap:round;stroke-width:2;stroke:#000000"/>
 <path d="m15.014242 44.9999h16" style="fill:none;stroke-linecap:round;stroke-width:2;stroke:#ffffff"/>
 <path d="m25.008 33.985758v-15.999998m-9.999415 0 4.991415 8 5.008-8m-9.999415 15.999998v-15.999998" style="fill:none;opacity:.2;stroke-linecap:round;stroke-linejoin:round;stroke-width:1.9999999;stroke:#000000"/>
 <path d="m25.008 32.985758v-15.999998m-9.999415 0 4.991415 8 5.008-8m-9.999415 15.999998v-15.999998" style="fill:none;stroke-linecap:round;stroke-linejoin:round;stroke-width:1.9999999;stroke:#ffffff"/>
 <path d="m29.014148 26.051914s8.000004 0.929 8.000004-4.000004c0-4.928996-8.000004-3.999996-8.000004-3.999996m1.96e-4 16.000202v-16.000005" style="fill:none;opacity:.2;stroke-linecap:round;stroke-linejoin:bevel;stroke-width:1.9999999;stroke:#000000"/>
 <path d="m29.014148 25.051914s8.000004 0.929 8.000004-4.000004c0-4.928996-8.000004-3.999996-8.000004-3.999996m1.96e-4 16.000202v-16.000005" style="fill:none;stroke-linecap:round;stroke-linejoin:bevel;stroke-width:1.9999999;stroke:#ffffff"/>
 <path d="m41.006464 31.999036s1.00877 2.001924 4.000002 2.000964c2.991224-9.68e-4 3.999996-2.000964 3.999996-4.000962 0-8.428778-7.999998 0.422324-7.976036-7.98141-0.02418-2.018592 0.943732-4.018591 3.97604-4.018591 3.0323 0 3.999768 1.999999 3.999768 1.999999" style="fill:none;opacity:.2;stroke-linecap:round;stroke-linejoin:round;stroke-width:1.9999999;stroke:#000000"/>
 <path d="m41.006464 30.999036s1.00877 2.001924 4.000002 2.000964c2.991224-9.68e-4 3.999996-2.000964 3.999996-4.000962 0-8.428778-7.999998 0.422324-7.976036-7.98141-0.02418-2.018592 0.943732-4.018591 3.97604-4.018591 3.0323 0 3.999768 1.999999 3.999768 1.999999" style="fill:none;stroke-linecap:round;stroke-linejoin:round;stroke-width:1.9999999;stroke:#ffffff"/>
</svg>

<svg xmlns="http://www.w3.org/2000/svg" width="64" height="64" version="1">
 <path style="opacity:0.2" d="M 6.8007812,61 C 5.2495812,61 4,59.750418 4,58.199218 v -2 C 4,57.750418 5.2495812,59 6.8007812,59 H 32 57.199218 C 58.750418,59 60,57.750418 60,56.199218 v 2 C 60,59.750418 58.750418,61 57.199218,61 H 32 Z"/>
 <path style="fill:#f7c73c" d="M 32,4 H 6.8 C 5.2488,4 4,5.2488 4,6.8 V 32 h 28 z"/>
 <path style="fill:#21d789" d="M 32,4 H 57.2 C 58.7512,4 60,5.2488 60,6.8 V 32 H 32 Z"/>
 <path style="fill:#21d789" d="M 32,60 H 6.8 C 5.2488,60 4,58.7512 4,57.2 V 32 h 28 z"/>
 <path style="fill:#2086e7" d="M 32,60 H 57.2 C 58.7512,60 60,58.7512 60,57.2 V 32 H 32 Z"/>
 <path style="opacity:0.2;fill:#ffffff" d="M 6.8007812 4 C 5.2495812 4 4 5.2495812 4 6.8007812 L 4 7.8007812 C 4 6.2495813 5.2495812 5 6.8007812 5 L 32 5 L 57.199219 5 C 58.750419 5 60 6.2495812 60 7.8007812 L 60 6.8007812 C 60 5.2495813 58.750419 4 57.199219 4 L 32 4 L 6.8007812 4 z"/>
 <rect style="fill:#3f3f3f" width="40" height="40" x="12" y="12"/>
 <path style="opacity:0.2;fill:none;stroke:#000000;stroke-width:2;stroke-linecap:round" d="m 15.014242,45.9999 h 16"/>
 <path style="fill:none;stroke:#ffffff;stroke-width:2;stroke-linecap:round" d="m 15.014242,44.9999 h 16"/>
 <path style="opacity:0.2;fill:none;stroke:#000000;stroke-width:1.99999988;stroke-linecap:round;stroke-linejoin:round" d="M 25.008,33.985758 V 17.98576 m -9.999415,0 4.991415,8 5.008,-8 M 15.008585,33.985758 V 17.98576"/>
 <path style="fill:none;stroke:#ffffff;stroke-width:1.99999988;stroke-linecap:round;stroke-linejoin:round" d="M 25.008,32.985758 V 16.98576 m -9.999415,0 4.991415,8 5.008,-8 M 15.008585,32.985758 V 16.98576"/>
 <path style="opacity:0.2;fill:none;stroke:#000000;stroke-width:1.99999988;stroke-linecap:round;stroke-linejoin:bevel" d="m 29.014148,26.051914 c 0,0 8.000004,0.929 8.000004,-4.000004 0,-4.928996 -8.000004,-3.999996 -8.000004,-3.999996 m 1.96e-4,16.000202 V 18.052111"/>
 <path style="fill:none;stroke:#ffffff;stroke-width:1.99999988;stroke-linecap:round;stroke-linejoin:bevel" d="m 29.014148,25.051914 c 0,0 8.000004,0.929 8.000004,-4.000004 0,-4.928996 -8.000004,-3.999996 -8.000004,-3.999996 m 1.96e-4,16.000202 V 17.052111"/>
 <path style="opacity:0.2;fill:none;stroke:#000000;stroke-width:1.99999988;stroke-linecap:round;stroke-linejoin:round" d="m 41.006464,31.999036 c 0,0 1.00877,2.001924 4.000002,2.000964 2.991224,-9.68e-4 3.999996,-2.000964 3.999996,-4.000962 0,-8.428778 -7.999998,0.422324 -7.976036,-7.98141 -0.02418,-2.018592 0.943732,-4.018591 3.97604,-4.018591 3.0323,0 3.999768,1.999999 3.999768,1.999999"/>
 <path style="fill:none;stroke:#ffffff;stroke-width:1.99999988;stroke-linecap:round;stroke-linejoin:round" d="m 41.006464,30.999036 c 0,0 1.00877,2.001924 4.000002,2.000964 2.991224,-9.68e-4 3.999996,-2.000964 3.999996,-4.000962 0,-8.428778 -7.999998,0.422324 -7.976036,-7.98141 -0.02418,-2.018592 0.943732,-4.018591 3.97604,-4.018591 3.0323,0 3.999768,1.999999 3.999768,1.999999"/>
</svg>
